symbolic/22x22/apps/vico.svg

<svg xmlns="http://www.w3.org/2000/svg" width="22" height="22" version="1.1">
 <path style="opacity:0.2" d="m 10.983398,6.5002785 c -0.277344,0.00305 -0.54212,0.081479 -0.738281,0.21875 L 1.3124961,12.970983 c -0.41666147,0.291839 -0.41666147,0.764802 0,1.056641 l 8.9326209,6.253909 c 0.416845,0.291289 1.091945,0.291289 1.50879,0 l 8.933597,-6.253909 c 0.416662,-0.291839 0.416662,-0.764802 0,-1.056641 L 11.753907,6.7190285 C 11.549846,6.5762355 11.27191,6.4973289 10.983398,6.5002785 Z"/>
 <path style="fill:#4f4f4f" d="m 10.983398,6.0001763 c -0.277344,0.00305 -0.54212,0.08148 -0.738281,0.21875 L 1.3124961,12.470881 c -0.41666148,0.291839 -0.41666148,0.764802 0,1.056641 l 8.9326209,6.253909 c 0.416845,0.291289 1.091945,0.291289 1.50879,0 l 8.933597,-6.253909 c 0.416662,-0.291839 0.416662,-0.764802 0,-1.056641 L 11.753907,6.2189263 C 11.549846,6.0761333 11.27191,5.9972267 10.983398,6.0001763 Z"/>
 <path style="opacity:0.2" d="m 10.983398,2.5002757 c -0.277344,0.00303 -0.54212,0.081479 -0.738281,0.21875 L 1.3124961,8.9709824 c -0.41666147,0.2918389 -0.41666147,0.7648019 0,1.0566406 l 8.9326209,6.25391 c 0.416845,0.291288 1.091945,0.291288 1.50879,0 l 8.933597,-6.25391 c 0.416662,-0.2918387 0.416662,-0.7648017 0,-1.0566406 L 11.753907,2.7190257 C 11.549846,2.576233 11.27191,2.497326 10.983398,2.5002757 Z"/>
 <path style="fill:#e4e4e4" d="m 10.983398,2.0002756 c -0.277344,0.00302 -0.54212,0.081479 -0.738281,0.2187501 L 1.3124961,8.4709822 c -0.41666147,0.2918392 -0.41666147,0.7648021 0,1.0566411 l 8.9326209,6.2539087 c 0.416845,0.291289 1.091945,0.291289 1.50879,0 l 8.933597,-6.2539087 c 0.416662,-0.291839 0.416662,-0.7648019 0,-1.0566411 L 11.753907,2.2190257 C 11.549846,2.0762329 11.27191,1.997326 10.983398,2.0002756 Z"/>
 <path style="opacity:0.1" d="m 7.2675766,4.8027288 -0.3564452,0.2500001 5.3652356,3.755861 0.41797,-0.2929691 5.062502,3.5634772 0.435547,-0.304687 -0.356446,-0.250977 -0.0791,0.05566 -5.062502,-3.5634774 -0.41797,0.2929691 z M 3.7314425,7.2773393 3.374997,7.5273394 8.7402337,11.2832 l 0.4179684,-0.292969 5.0634789,3.563478 0.43457,-0.304688 -0.355469,-0.25 -0.0791,0.05469 -5.0634789,-3.563478 -0.4179684,0.292968 z m 9.4941445,0.3662106 -0.09668,0.067383 0.356445,0.2509766 0.09766,-0.068359 z m -3.5351579,2.4746101 -0.09766,0.06836 0.356446,0.250976 0.09863,-0.06934 z"/>
 <path style="opacity:0.2;fill:#ffffff" d="m 10.983402,1.9999934 c -0.277344,0.00302 -0.54212,0.081479 -0.738281,0.2187501 L 1.3125001,8.4706987 C 1.0116724,8.6814053 0.93186493,8.9858169 1.0654298,9.2490193 1.1168858,9.1479123 1.1969094,9.0516613 1.3125001,8.9706989 L 10.245121,2.7187437 c 0.196161,-0.1372706 0.460937,-0.2157251 0.738281,-0.2187501 0.288512,-0.00295 0.566448,0.075957 0.770508,0.2187501 l 8.933598,6.2519552 c 0.11559,0.080962 0.195614,0.1772134 0.24707,0.2783204 0.133565,-0.2632024 0.05376,-0.567614 -0.24707,-0.7783206 L 11.75391,2.2187435 C 11.54985,2.0759507 11.271914,1.9970438 10.983402,1.9999934 Z"/>
 <path style="opacity:0.4" d="M 7.7773428,3.9453064 7.3427721,4.2499941 17.756839,11.579098 18.192386,11.274411 Z m -3.5351579,2.475587 -0.4355471,0.3037111 10.4150432,7.3291045 0.43457,-0.304688 z"/>
 <path style="fill:#3f3f3f" d="M 8.2177725,3.6376891 6.9111314,4.5527287 12.276367,8.3085897 13.583009,7.3935498 Z M 4.681638,6.1122993 3.374997,7.0273392 8.7402337,10.783199 10.047851,9.8681603 Z"/>
</svg>

<svg xmlns="http://www.w3.org/2000/svg" width="22" height="22"><path style="opacity:.2" d="M10.983 6.5a1.329 1.329 0 0 0-.738.219l-8.933 6.252c-.416.292-.416.765 0 1.057l8.933 6.254c.417.29 1.092.29 1.509 0l8.934-6.254c.416-.292.416-.765 0-1.057l-8.934-6.252a1.339 1.339 0 0 0-.77-.219z"/><path style="fill:#4f4f4f" d="M10.983 6a1.329 1.329 0 0 0-.738.219L1.312 12.47c-.416.292-.416.765 0 1.057l8.933 6.253c.417.292 1.092.292 1.509 0l8.934-6.253c.416-.292.416-.765 0-1.057l-8.934-6.252a1.339 1.339 0 0 0-.77-.219z"/><path style="opacity:.2" d="M10.983 2.5a1.329 1.329 0 0 0-.738.219L1.312 8.971c-.416.292-.416.765 0 1.057l8.933 6.254c.417.29 1.092.29 1.509 0l8.934-6.254c.416-.292.416-.765 0-1.057l-8.934-6.252a1.339 1.339 0 0 0-.77-.219z"/><path style="fill:#e4e4e4" d="M10.983 2a1.329 1.329 0 0 0-.738.219L1.312 8.471c-.416.292-.416.765 0 1.057l8.933 6.254c.417.29 1.092.29 1.509 0l8.934-6.254c.416-.292.416-.765 0-1.057l-8.934-6.252a1.339 1.339 0 0 0-.77-.219z"/><path style="opacity:.1" d="m7.268 4.803-.357.25 5.365 3.756.418-.293 5.063 3.563.435-.305-.356-.25-.08.055-5.062-3.563-.418.293zM3.73 7.277l-.356.25 5.365 3.756.418-.293 5.064 3.564.434-.305-.355-.25-.08.055-5.063-3.564-.418.293zm9.495.367-.097.067.356.25.098-.067zM9.69 10.118l-.097.069.356.25.099-.069z"/><path style="opacity:.2;fill:#fff" d="M10.983 2a1.329 1.329 0 0 0-.738.219L1.313 8.47c-.301.21-.381.515-.248.778a.762.762 0 0 1 .248-.278l8.932-6.252c.196-.138.461-.216.738-.219.289-.003.567.076.77.219l8.935 6.252a.762.762 0 0 1 .247.278c.133-.263.053-.568-.247-.778l-8.934-6.252a1.339 1.339 0 0 0-.77-.219z"/><path style="opacity:.4" d="m7.777 3.945-.434.305 10.414 7.33.435-.306zM4.242 6.421l-.435.304 10.415 7.329.434-.305z"/><path style="fill:#3f3f3f" d="m8.218 3.638-1.307.915 5.365 3.756 1.307-.915zM4.682 6.112l-1.307.915 5.365 3.756 1.308-.915z"/></svg>
